X: 1
T:The Mason's Apron  "Trad. arr. P.M. Norman Gillies, Ullapool"
M:C
L:1/8
Q:80
C:
S:Hornpipe
K:HP
a|
c/2{d}A/2{e}A/2{d}B/2{g}A/2{d}A/2{g}A/2{d}G/2|
{g}A/2{d}A/2{e}A/2B/2{gcd}c{g}B/2{d}A/2|
{g}d/2B/2{G}B/2c/2{g}d/2B/2{g}c/2{d}A/2|  !
{g}B/2c/2{g}d/2e/2{g}f/2e/2{g}f/2g/2a/2A/2{g}A/2{d}B/2{g}A/2{d}B/2{g}A/2
{d}G/2|
{g}A/2{d}A/2{e}A/2B/2{gcd}c{g}B/2{d}A/2|
{g}B/2c/2{g}d/2e/2{g}f/2e/2{g}f/2a/2|  !
{ef}e/2d/2{gcd}c/2B/2{gAGAG}A:| |:
{g}e/2d/2|
{g}c/2{d}A/2{g}e/2A/2{g}f/2A/2{g}e/2A/2|  !
{g}c/2{d}A/2{g}e/2A/2{g}f/2e/2{gde}d/2c/2|
{g}d/2B/2{g}f/2B/2a/2B/2{g}f/2e/2|
{gde}d/2c/2{g}d/2e/2{g}f/2a/2e/2d/2{g}c/2{d}A/2{g}e/2A/2{g}f/2A/2{g}e/2A
/2|  !
{g}c/2{d}A/2{g}e/2A/2{g}f/2e/2{gde}d/2c/2|
{g}B/2c/2{g}d/2e/2{g}f/2g/2a/2f/2|
{gef}e/2d/2{gcd}c/2B/2{gAGAG}A:| |:  !
{g}A/2B/2|
{gcecG}c{g}e/2A/2{g}c/2e/2{g}A/2{d}c/2|
{g}e/2A/2{g}c/2e/2{g}A/2{d}c/2{g}e/2A/2|  !
{gdedG}d{g}f/2A/2{g}d/2f/2{g}A/2d/2|
{g}f/2A/2{g}d/2f/2{g}A/2d/2{g}f/2A/2{gcecG}c{g}e/2A/2{g}c/2e/2{g}A/2{d}c
/2|
a/2A/2g/2A/2{g}f/2A/2{g}e/2c/2|  !
{gde}d/2c/2{g}d/2e/2{g}f/2g/2a/2f/2|
{gef}e/2d/2{gcd}c/2B/2{gAGAG}A:| |:
{ag}a|  !
c/2e/2{g}A/2e/2{g}A/2e/2{A}e/2A/2|
{eAfA}e{g}A/2e/2{A}e/2A/2{g}e/2c/2|
{g}d/2f/2{g}B/2d/2{g}f/2B/2{g}d/2f/2|  !
{GdGcG}B{g}f/2B/2{g}d/2f/2{ag}ac/2e/2{g}A/2e/2{g}A/2e/2{A}e/2A/2|
{eAfA}e{g}A/2e/2{A}e/2A/2{g}e/2c/2|
{gde}d/2c/2{g}d/2e/2{g}f/2e/2{A}e/2f/2|  !
{gef}ec/2{GdGcG}B/2{gAGAG}A:| |:
{ag}a|
c/2{d}A/2{e}A/2{d}B/2{g}A/2{d}A/2{g}A/2{d}G/2|  !
{g}A/2{d}A/2{e}A/2B/2{g}c/2{d}A/2{g}B/2c/2|
{g}d/2B/2{g}c/2d/2{g}e/2c/2{g}d/2e/2|
{g}f/2d/2{g}e/2f/2{a}g/2e/2{g}f/2g/2a/2A/2{g}A/2{d}B/2{g}A/2{d}B/2{g}A/2
{d}G/2|  !
{g}A/2{d}A/2{e}A/2B/2{g}c/2{d}A/2{g}B/2c/2|
{gde}d/2c/2{g}d/2e/2{g}f/2g/2a/2f/2|
{gef}e/2d/2{gcd}c/2B/2{gAGAG}A:| |:  !
{g}A/2B/2|
{gcecG}c{g}e/2c/2{g}f/2c/2{g}e/2c/2|
{g}A/2{d}c/2{g}e/2c/2{g}f/2c/2{g}e/2c/2|  !
{gdedG}d{g}f/2d/2a/2d/2{g}f/2d/2|
{g}A/2d/2{g}f/2d/2a/2d/2{g}f/2d/2{gcecG}c{g}e/2c/2{g}f/2c/2{g}e/2c/2|
{g}A/2{d}c/2{g}e/2c/2a/2c/2{g}e/2c/2|  !
{gde}d/2c/2{g}d/2e/2{g}f/2g/2a/2f/2|
{gef}e/2d/2{gcd}c/2B/2{gAGAG}A:| |:
{g}A/2B/2|  !
{gcecG}ca/2c/2g/2c/2e/2c/2|
{gcecG}ca/2c/2g/2c/2e/2c/2|
{gdedG}da/2d/2g/2d/2f/2d/2|  !
{gdedG}da/2d/2g/2d/2f/2d/2{gcecG}ca/2c/2g/2c/2e/2c/2|
{gcecG}ca/2c/2g/2c/2e/2c/2|
{gde}d/2c/2{g}d/2e/2{g}f/2g/2a/2f/2|  !
{gef}e/2d/2{gcd}c/2B/2{gAGAG}A:| |:
{g}((3e/2f/2g/2)|
a/2e/2{A}e/2a/2f/2e/2{g}f/2g/2|  !
a/2{g}a/2{g}a/2e/2{g}f/2a/2e/2c/2|
{g}d/2a/2c/2a/2B/2a/2c/2a/2|
B/2c/2{g}d/2e/2{g}f/2e/2{g}f/2g/2|1 a/2e/2{A}e/2a/2f/2e/2{g}f/2g/2|  !
a/2{g}a/2{g}a/2e/2{g}f/2a/2e/2c/2|
{gde}d/2c/2{g}d/2e/2{g}f/2g/2a/2f/2|
{gef}e/2d/2{gcd}c/2B/2{gAGAG}A:|2  !
a/2e/2{A}e/2a/2f/2e/2{g}f/2g/2|
a/2{g}a/2{g}a/2e/2{g}f/2a/2e/2c/2|
{gde}d/2c/2{g}d/2e/2{g}f/2e/2{g}f/2g/2|  !
a/2e/2{g}f/2g/2{ag}a2|] |:
c/2{d}A/2{g}e/2A/2{g}c/2e/2{g}A/2{d}c/2|
{g}f/2A/2{g}e/2A/2{g}c/2{d}A/2{e}A/2{d}c/2|  !
{g}d/2B/2{g}f/2B/2{g}d/2B/2{G}B/2c/2|
{g}B/2c/2{g}f/2e/2{g}d/2B/2{G}B/2a/2|1 c/2{d}A/2{g}e/2A/2{g}c/2e/2{g}A/2
{d}c/2|
{g}f/2A/2{g}e/2A/2{g}c/2{d}A/2{e}A/2{d}c/2|  !
{gde}d/2c/2{g}d/2e/2{g}f/2g/2a/2f/2|
{gef}e/2d/2{gcd}c/2B/2{gAGAG}A{ag}a:|2
c/2{d}A/2{g}e/2A/2{g}c/2e/2{g}A/2{d}c/2|  !
{g}f/2A/2{g}e/2A/2{g}c/2{d}A/2{e}A/2{d}c/2|
{g}B/2d/2{g}c/2e/2{g}d/2f/2{g}e/2g/2|
a/2e/2{g}f/2g/2aA/2{gAGAG}A/2|]  !
